X:1
T:C Major French Psalter, 1562
T:William Kethe, 1561 88. 88. (L. M.)
T:Psalm 27 No copyright. Transcribed from The Scottish Psalter, 1635.
%%score [ 1 2 3 4 ]
L:1/8
M:6/4
K:C
V:1 treble nm="Treble" snm="Tr."
V:2 treble nm="Counter" snm="C."
V:3 treble-8 nm="Tenor" snm="T."
V:4 bass nm="Bass" snm="B."
V:1
"^2.  Against me though there pitch an host,      Mine heart from fear        yet     far     it             is:             Though wars be rai –""^1.  The Lord my   light   and health will be,         For what then should       I        be     dismayed?              My strength and life" c4 B2 c4 G2 | %1
 A2 B2 c4 B4 || c4 c2 B2 c4 |[M:8/4] d4 ed (c4 B2) c4 ||[M:6/4] A4 A2 c4 B2 | %5
"^1.   also      is       He,          Of     whom then should    I         be           afraid?              When that my foes      (men    vile    and   vain)""^2. –sed with great boast,  Yet     will    I      surely                  trust    in     this.            One  thing  I    have        the    Lord  besought," A2 G2 F4 E4 || %6
 A4 A2 A2 c4 |[M:8/4] c4 c4 A4 A4 ||[M:6/4] e4 e2 e2 d4 | A4 A (c2 B) c4 || %10
"^1.  Ap-proach-ed  near   my  flesh  to    eat,       They  stumbled  in    the   self-same train  Which they laid for     me  by   deceit.""^2. That   I   may  in        His house still dwell:     To    see   His    beauty  passing thought,  His    temple       also        doth excel." e4 e2 e2 f4 | %11
 e4 d2 c2 B4 || c4 B2 d4 G2 | A3 B c4 A4 || G4 c2 A4 c2 |[M:8/4] B2 c2 d4 e8 |] %16
V:2
"^4.  My  voice, O  Lord,   let  it    take    place,      With   mercy  hear           me when         I          cry:           When Thou did say,""^3.  For    in  the    time   of  troubles    great        His       tabernacle                     shall       me      hide:          His     secret    tents" E4 D2 C4 D2 | %1
 E2 G2 ^F4 G4 || E4 E2 G2 G4 |[M:8/4] A4 G4 G4 E4 ||[M:6/4] E4 F2 G4 G2 | %5
"^3. shall be my    seat,        And       on    a   rock             I      shall      a  –  bide.           And    now mine head    lift      up     will     be,""^4.  Seek ye My    face,        With   full   consent             Lo    here,     quoth I.                Hide  not   therefore      Thy    face    me   from," E2 E2 C4 C4 || %6
 E4 E2 F2 G4 |[M:8/4] A4 G4 F4 E4 ||[M:6/4] C4 C2 C2 D4 | F4 F2 G2 G4 || %10
"^3. Above    my  foes   who work  such  fraud:  With    sacrifice       and  offering   free        Within    His    tents    I  will Him laud.""^4. Nor   in  Thy  wrath  Thy   servant  spill:    Thou  hast me helped, then leave not so,     O    God of  health,  help Thou me still." c4 c2 G2 c4 | %11
 c4 A2 G2 G4 || c4 G2 A4 c2 | c2 F2 G4 F4 || C4 C2 C4 G2 |[M:8/4] E2 C2 G4 G8 |] %16
V:3
"^6.  I should wax faint, and sore dismayed.        But  that  I     did               believe           to         see          God’s  goodness  in""^5.  Although my parents   me     forsake,          The   Lord yet will            me  raise       and      stay:         My    foes  set snares" c4 d2 e4 d2 | %1
 c2 B2 A4 G4 || c4 c2 d2 e4 |[M:8/4] f4 e4 d4 c4 ||[M:6/4] c4 d2 e4 d2 | %5
"^5. me in   to      take,        But, Lord, lead  me               in      the    right    way.             Unto         mine adversaries                       lust""^6. that land displayed,    Whereas    His    faithful                  servants      be.              Hope   in   the   Lord,    and    be   thou strong," c2 B2 A4 G4 || %6
 c4 c2 d2 e4 |[M:8/4] f4 e4 d4 c4 ||[M:6/4] e4 e2 e2 g4 | f4 f2 d2 e4 || %10
"^5. Lord, give me not    in         any       wise:      For   witness   false,  with words unjust   They seek against         me  to  devise.""^6. He comfort  will    thine heart  indeed;      Trust    in  the   Lord,  and think not long,   For    He will surely come with speed." g4 g2 g2 a4 | %11
 g4 f2 e2 d4 || e4 g2 f4 e2 | c2 d2 e4 c4 || e4 e2 f4 e2 |[M:8/4] d2 c4 B2 c8 |] %16
V:4
 C,4 G,2 C4 B,2 | A,2 G,2 C4 D4 || C4 C2 G,2 C4 |[M:8/4] F,4 C4 G,4 C,4 ||[M:6/4] A,4 D2 C4 G,2 | %5
 A,2 E,2 F,4 C,4 || A,4 A,2 D2 C4 |[M:8/4] F,4 C4 D4 A,4 ||[M:6/4] C4 C2 C2 B,4 | %9
 A,4 G,2 G,2 C,4 || C4 C2 C2 F,4 | C,4 D,2 E,C, G,4 || C,4 E,2 D,4 C,2 | F,2 D,2 C,4 F,4 || %14
 C,4 C,2 F,4 C,2 |[M:8/4] G,2 A,2 G,4 C,8 |] %16

